!!!COM: Music21
!!!OTL: waltz_Ice-Flower
!!!OMV: waltz_Ice-Flower
**kern
*clefG2
*k[]
*M5/4
=1
8eL
8cc
8cc
8bJ
8aL
16gL
16fJ
8e
16dL
16eJ
8f
8dJ
=
8eL
16aL
16bJ
8cc
16bL
16aJJ
8eL
8a
8cc
8bJ
4b
=
8eL
8cc
8cc
8bJ
8aL
16gL
16fJ
8e
16dL
16eJ
8f
8dJ
!!linebreak:original
=
8eL
16aL
16bJ
8cc
16bL
16aJJ
8eL
8a
8b
8aJ
4a
=||
*M5/4
8eL
8cc
8cc
8bJ
8aL
16gL
16fJ
8e
16dL
16eJ
8f
8dJ
=
8eL
16aL
16bJ
8cc
16bL
16aJJ
8eL
8a
8cc
8bJ
4b
!!linebreak:original
=
8eL
8cc
8cc
8bJ
8aL
16gL
16fJ
8e
16dL
16eJ
8f
8dJ
=
8eL
16aL
16bJ
8cc
16bL
16aJJ
8eL
8a
8b
8aJ
4a
=||
8aL
8ee
8ee
16ddL
16eeJJ
8ffL
8dd
8ee
16ddL
16ccJ
8b
8ddJ
=
8ccL
16bL
16aJ
8b
8ccJ
16ddLL
16cc
16b
16aJ
8cc
8bJ
4b
!!linebreak:original
=
8aL
8ee
8ee
16ddL
16eeJJ
8ffL
8dd
8ee
16ddL
16ccJ
8b
8ddJ
=
8ccL
16bL
16aJ
8b
16aL
16gJJ
8eL
8a
8b
8aJ
4a
=||
8aL
8ee
8ee
16ddL
16eeJJ
8ffL
8dd
8ee
16ddL
16ccJ
8b
8ddJ
=
8ccL
16bL
16aJ
8b
8ccJ
16ddLL
16cc
16b
16aJ
8cc
8bJ
4b
!!linebreak:original
=
8aL
8ee
8ee
16ddL
16eeJJ
8ffL
8dd
8ee
16ddL
16ccJ
8b
8ddJ
=
8ccL
16bL
16aJ
8b
16aL
16gJJ
8eL
8a
8b
8aJ
4a
=||
*-
